svgs/regular/rectangles-mixed.svg

<svg xmlns="http://www.w3.org/2000/svg" viewBox="0 0 576 512"><!--! Font Awesome Pro 6.6.0 by @fontawesome - https://fontawesome.com License - https://fontawesome.com/license (Commercial License) Copyright 2024 Fonticons, Inc. --><path d="M256 80c8.8 0 16 7.2 16 16l0 96c0 8.8-7.2 16-16 16L64 208c-8.8 0-16-7.2-16-16l0-96c0-8.8 7.2-16 16-16l192 0zM64 32C28.7 32 0 60.7 0 96l0 96c0 35.3 28.7 64 64 64l192 0c35.3 0 64-28.7 64-64l0-96c0-35.3-28.7-64-64-64L64 32zM512 80c8.8 0 16 7.2 16 16l0 224c0 8.8-7.2 16-16 16l-64 0c-8.8 0-16-7.2-16-16l0-224c0-8.8 7.2-16 16-16l64 0zM448 32c-35.3 0-64 28.7-64 64l0 224c0 35.3 28.7 64 64 64l64 0c35.3 0 64-28.7 64-64l0-224c0-35.3-28.7-64-64-64l-64 0zM128 352l144 0c8.8 0 16 7.2 16 16l0 48c0 8.8-7.2 16-16 16l-144 0c-8.8 0-16-7.2-16-16l0-48c0-8.8 7.2-16 16-16zM64 368l0 48c0 35.3 28.7 64 64 64l144 0c35.3 0 64-28.7 64-64l0-48c0-35.3-28.7-64-64-64l-144 0c-35.3 0-64 28.7-64 64z"/></svg>

<svg xmlns="http://www.w3.org/2000/svg" viewBox="0 0 576 512"><!--! Font Awesome Pro 6.4.2 by @fontawesome - https://fontawesome.com License - https://fontawesome.com/license (Commercial License) Copyright 2023 Fonticons, Inc. --><path d="M256 80c8.8 0 16 7.2 16 16v96c0 8.8-7.2 16-16 16H64c-8.8 0-16-7.2-16-16V96c0-8.8 7.2-16 16-16H256zM64 32C28.7 32 0 60.7 0 96v96c0 35.3 28.7 64 64 64H256c35.3 0 64-28.7 64-64V96c0-35.3-28.7-64-64-64H64zM512 80c8.8 0 16 7.2 16 16V320c0 8.8-7.2 16-16 16H448c-8.8 0-16-7.2-16-16V96c0-8.8 7.2-16 16-16h64zM448 32c-35.3 0-64 28.7-64 64V320c0 35.3 28.7 64 64 64h64c35.3 0 64-28.7 64-64V96c0-35.3-28.7-64-64-64H448zM128 352H272c8.8 0 16 7.2 16 16v48c0 8.8-7.2 16-16 16H128c-8.8 0-16-7.2-16-16V368c0-8.8 7.2-16 16-16zM64 368v48c0 35.3 28.7 64 64 64H272c35.3 0 64-28.7 64-64V368c0-35.3-28.7-64-64-64H128c-35.3 0-64 28.7-64 64z"/></svg>
